X:267
T: UMSONST SUCHST DU DIR FREUDENQUELLEN
N: B0746
O: Europa, Mitteleuropa, Deutschland
R: Moral - Lied, religioes
M: 4/4
L: 1/16
K: C
G,4 | C6G,2F,2E,2D,2C,2 | C,4B,4z2
G,2G,2B,2 | D6F,2A,2A,2G,2^F,2 | G,8z4
G,4 | C4C3CE2D2C2B,2 | B,4A,4z2
F,2F,2D,2 | B,6A,2G,4F,4 | E,8z4

@@@ Tune index: 2485
